X:1
T:Title
%%score 1 { 2 | 3 }
L:1/8
Q:1/4=80
M:6/8
K:Ab
V:1 treble nm="Grand Piano, Soprano"
V:2 bass nm="Choir Pad, Senegal, 11.11.11.8 D"
V:3 bass 
V:1
 [CE][Ec]>[Ec] [Ec][Ec]<[CA] | [EA][DA]>[DG] [DF] [CE]2 | [CE][DE]>[Ed] [Ed][Ed]>[Ec] | %3
w: By~Henry~Lake~Gilmour,~1893 * * * * *|||
 [EB][EA]>[EG] [EA] [EB]2 | E[Ec]>[Ec] [Ec][Ec]<[CA] | [DB][Ec]>[CA] [DF] [CE]2 | %6
w: |||
 E[DF]>[EG] [FA][EG]<[Gc] | [GB] [EA]2- [EA]2- [EA]/ z/ | E[Gd]>[Gd] [Gd][Gd]>[Ec] | %9
w: |||
 [EB][Ec]>[Ec] [Ec] [Ec]2 | [EA][EB]>[EB] [EB][EB]>[EA] | [EB][Ec]>[CA] [DF] [CE]2 | %12
w: |||
 E[Bd]>[Ad] [Gd][Bd]>[Ac] | [GB][Ac]>[Ac] [Ac] [Ac]2 | [EA][GB]>[GB] [GB][GB]<[Ac] | %15
w: |||
 [EB] [EA]2- [EA]3- | [EA]3 z3 |] %17
w: ||
V:2
 A,A,>A, A,A,<A, | A,F,>G, A, A,2 | A,G,>G, G,G,>A, | B,C>B, C G,2 | G,A,>A, A,A,<A, | %5
 A,A,>A, A, A,2 | A,A,>A,[K:treble] DB,<E | D C2- C2- C/ z/ | C[K:bass]B,>B, B,B,>A, | %9
 G,A,>A, A, A,2 | A,G,>G, G,G,>F, | G,A,>A, A, A,2 | E,[K:treble]E>E EE>E | EE>E E E2 | CD>D DD<E | %15
 D C2- C3- | C3 z3 |] %17
V:3
 A,,A,,>A,, A,,A,,<A,, | C,D,>D, D, A,,2 | A,,E,>E, E,E,>E, | E,E,>E, E, E,2 | %4
 E,A,,>A,, A,,A,,<A,, | A,,A,,>A,, A,, A,,2 | C,D,>D, D,E,<E, | E, A,2- A,2- A,/ z/ | %8
 A,E,>E, E,E,>E, | E,A,,>A,, A,, A,,2 | C,E,>E, E,E,>E, | E,A,,>A,, A,, A,,2 | z E,>E, E,E,>E, | %13
 E,A,>A, A, A,2 | A,E,>E, E,E,<E, | E, A,,2- A,,3- | A,,3 z3 |] %17

